X:1
T:Title
%%score { 1 | 2 }
L:1/8
M:6/8
K:F
V:1 treble nm="Grand Piano"
V:2 bass 
V:1
 z3 z2[Q:1/4=87] F | A2 A B2 A | c2 d c2 F | [FA]3 [EG]3 |[M:5/8] A-A- A3 |[M:1/8] F | %6
[M:3/4] A2 A B2 A | c2 d c2 F | [FA]3 [EG]3 |[M:5/8] F-F- F3 |] %10
V:2
 z3 z2 [F,A,C] | [F,CF]2 [F,CF] [F,DF]2 [F,CF] | [F,A,F]2 [F,B,F] [F,A,F]2 [F,A,] | [C,C]3 [C,C]3 | %4
[M:5/8] [F,CF]-[F,CF]- [F,CF]3 |[M:1/8] [F,A,C] |[M:3/4] [F,CF]2 [F,CF] [F,DF]2 [F,CF] | %7
 [F,A,F]2 [F,B,F] [F,A,F]2 [D,A,] | [C,C]3 [C,B,]3 |[M:5/8] [F,A,]-[F,A,]- [F,A,]3 |] %10

